X:166
T:Young Prince, The
M:6/8
L:1/8
B:Thompson's Compleat Collection of 200 Favourite Country Dances, vol. 2 (London, 1765)
Z:Transcribed and edited by Flynn Titford-Mock, 2007
Z:abc's:AK/Fiddler's Companion
K:D
A | d2f afd | cde e2A | d2f afd | {cd}e3 A2A | d2f afd | e2f gfg | (f/g/a)f ede | d3 D2 :|
|: A | B=cB d2B | B2A ABA | A2G G2F | F3 E2A | B=cB d2B | B2A ABA | A2G F2E | (D3 D2) :|

